media/costumes/1-glow.svg

<svg width="49" height="80" xmlns="http://www.w3.org/2000/svg"><path fill="#0CC" d="M48.417 67.38c-.22 2.13-1.06 4.14-2.41 5.8-1.98 2.44-4.29 4.18-6.86 5.17-2.36.91-4.99 1.22-8.23.97-.38-.03-.67-.04-.88-.05-.04.01-.08.02-.13.03-1.74.46-3.19.67-4.57.67-1.24 0-2.34-.21-3.29-.49-1.38.09-2.49.13-3.39.13h-4.21c-1.91-.08-7.61-.3-11.11-5.14-.47-.62-1.34-1.84-2.01-3.52-.29-.59-.55-1.2-.76-1.85-.6-1.8-.73-3.72-.36-5.58 1.38-7.08 6.74-10.48 12.02-11.54-.06-5.2-.23-11.55-.52-19.01-.01-.27-.01-.55 0-.83a13.1 13.1 0 0 1-4.91-3.93 12.924 12.924 0 0 1-2.75-7.97c0-5.05 2.77-9.38 8.24-12.88.05-.03.09-.06.14-.08.36-.23.62-.41.81-.54.65-1.06 1.48-2.01 2.46-2.8C18.887 1.36 22.617 0 26.477 0c6.98 0 12.58 4.61 13.96 11.48.37 1.87.25 3.8-.34 5.6-.11 1.3-.26 3.72-.42 8.15-.01.51-.04 1.18-.1 2.33-.04.59-.06 1-.07 1.23v8.97c.01.3.05.86.1 1.67.15 2.17.16 2.44.16 2.88v9.9c2.8 1.22 5.23 3.36 7.03 6.25 2.19 3.48 1.82 7.01 1.62 8.92z"/><path fill="#FFF" d="M37.477 66.239c-.763.938-1.525 1.554-2.287 1.848-.763.293-1.906.381-3.431.264-1.701-.118-2.814-.118-3.343 0-.059 0-.483.102-1.275.308-.791.205-1.394.309-1.803.309-.118 0-.338-.104-.66-.309-.323-.206-.571-.308-.747-.308-.295 0-1.071.044-2.331.132-1.262.088-2.243.132-2.947.132h-3.782c-1.525-.059-2.405-.264-2.639-.615-.527-.704-.792-1.231-.792-1.583-.176-.177-.322-.44-.439-.792.469-2.404 2.756-3.371 6.861-2.902 2.99.294 4.75.264 5.277-.089.233-6.273.088-16.302-.439-30.082.233-2.58.468-6.802.703-12.667-.411-.058-.998.207-1.759.792-.88.763-1.438 1.203-1.672 1.319a6.319 6.319 0 0 1-2.287.44c-.997 0-1.729-.322-2.198-.968a1.863 1.863 0 0 1-.44-1.231c0-1.056 1.056-2.257 3.167-3.606 2.463-1.524 3.928-2.903 4.398-4.135 1.231-.997 2.52-1.496 3.87-1.496 1.759 0 2.814.88 3.166 2.639a5.874 5.874 0 0 0-.352.968c-.235 1.818-.439 5.277-.616 10.38 0 .294-.03.938-.088 1.935a62.496 62.496 0 0 0-.088 1.672v9.411c0 .118.044.836.132 2.155a92.94 92.94 0 0 1 .133 2.155V62.37c1.583.294 2.667.323 3.254.088.762-.292 1.437-.439 2.023-.439 1.349 0 2.492.763 3.431 2.287.116.174.116.819 0 1.933z"/></svg>

<svg version="1.1" width="49" height="80" xmlns="http://www.w3.org/2000/svg" xmlns:xlink="http://www.w3.org/1999/xlink">
  <!-- Exported by Scratch - http://scratch.mit.edu/ -->
  <g id="ID0.8520682123489678">
    <g id="ID0.33068362809717655">
      <g id="ID0.7446344294585288">
        <path id="ID0.47614098666235805" fill="#00CCCC" d="M 48.417 67.380 C 48.197 69.510 47.357 71.520 46.007 73.180 C 44.027 75.620 41.717 77.360 39.147 78.350 C 36.787 79.260 34.157 79.570 30.917 79.320 C 30.537 79.290 30.247 79.280 30.037 79.270 C 29.997 79.280 29.957 79.290 29.907 79.300 C 28.167 79.760 26.717 79.970 25.337 79.970 C 24.097 79.970 22.997 79.760 22.047 79.480 C 20.667 79.570 19.557 79.610 18.657 79.610 L 14.447 79.610 C 12.537 79.530 6.837 79.310 3.337 74.470 C 2.867 73.850 1.997 72.630 1.327 70.950 C 1.037 70.360 0.777 69.750 0.567 69.100 C -0.033 67.300 -0.163 65.380 0.207 63.520 C 1.587 56.440 6.947 53.040 12.227 51.980 C 12.167 46.780 11.997 40.430 11.707 32.970 C 11.697 32.700 11.697 32.420 11.707 32.140 C 9.787 31.250 8.107 29.920 6.797 28.210 C 5.017 25.940 4.047 23.130 4.047 20.240 C 4.047 15.190 6.817 10.860 12.287 7.360 C 12.337 7.330 12.377 7.300 12.427 7.280 C 12.787 7.050 13.047 6.870 13.237 6.740 C 13.887 5.680 14.717 4.730 15.697 3.940 C 18.887 1.360 22.617 0 26.477 0 C 33.457 0 39.057 4.610 40.437 11.480 C 40.807 13.350 40.687 15.280 40.097 17.080 C 39.987 18.380 39.837 20.800 39.677 25.230 C 39.667 25.740 39.637 26.410 39.577 27.560 C 39.537 28.150 39.517 28.560 39.507 28.790 L 39.507 37.760 C 39.517 38.060 39.557 38.620 39.607 39.430 C 39.757 41.600 39.767 41.870 39.767 42.310 L 39.767 52.210 C 42.567 53.430 44.997 55.570 46.797 58.460 C 48.987 61.940 48.617 65.470 48.417 67.380 Z "/>
      </g>
    </g>
    <g id="ID0.551163587719202">
      <path id="ID0.45730895223096013" fill="#FFFFFF" d="M 37.477 66.239 C 36.714 67.177 35.952 67.793 35.190 68.087 C 34.427 68.380 33.284 68.468 31.759 68.351 C 30.058 68.233 28.945 68.233 28.416 68.351 C 28.357 68.351 27.933 68.453 27.141 68.659 C 26.350 68.864 25.747 68.968 25.338 68.968 C 25.220 68.968 25 68.864 24.678 68.659 C 24.355 68.453 24.107 68.351 23.931 68.351 C 23.636 68.351 22.860 68.395 21.600 68.483 C 20.338 68.571 19.357 68.615 18.653 68.615 C 17.422 68.615 16.160 68.615 14.871 68.615 C 13.346 68.556 12.466 68.351 12.232 68 C 11.705 67.296 11.440 66.769 11.440 66.417 C 11.264 66.240 11.118 65.977 11.001 65.625 C 11.470 63.221 13.757 62.254 17.862 62.723 C 20.852 63.017 22.612 62.987 23.139 62.634 C 23.372 56.361 23.227 46.332 22.700 32.552 C 22.933 29.972 23.168 25.750 23.403 19.885 C 22.992 19.827 22.405 20.092 21.644 20.677 C 20.764 21.440 20.206 21.880 19.972 21.996 C 19.209 22.290 18.447 22.436 17.685 22.436 C 16.688 22.436 15.956 22.114 15.487 21.468 C 15.193 21.115 15.047 20.706 15.047 20.237 C 15.047 19.181 16.103 17.980 18.214 16.631 C 20.677 15.107 22.142 13.728 22.612 12.496 C 23.843 11.499 25.132 11 26.482 11 C 28.241 11 29.296 11.880 29.648 13.639 C 29.530 13.874 29.414 14.198 29.296 14.607 C 29.061 16.425 28.857 19.884 28.680 24.987 C 28.680 25.281 28.650 25.925 28.592 26.922 C 28.533 27.920 28.504 28.477 28.504 28.594 L 28.504 38.005 C 28.504 38.123 28.548 38.841 28.636 40.160 C 28.724 41.479 28.769 42.198 28.769 42.315 L 28.769 62.370 C 30.352 62.664 31.436 62.693 32.023 62.458 C 32.785 62.166 33.460 62.019 34.046 62.019 C 35.395 62.019 36.538 62.782 37.477 64.306 C 37.593 64.480 37.593 65.125 37.477 66.239 Z "/>
    </g>
  </g>
</svg>
